files/resources/svgs/general/s-home-modern.svg

<svg width="24" height="24" viewBox="0 0 24 24" fill="none" xmlns="http://www.w3.org/2000/svg">
<path d="M19.0061 3.70505C19.3954 3.56349 19.5962 3.13317 19.4547 2.7439C19.3131 2.35462 18.8828 2.1538 18.4935 2.29536L6 6.83846V3.00021C6 2.58599 5.66421 2.25021 5.25 2.25021H3.75C3.33579 2.25021 3 2.58599 3 3.00021V7.92937L1.99353 8.29536C1.60426 8.43691 1.40344 8.86724 1.54499 9.25651C1.68655 9.64579 2.11687 9.8466 2.50615 9.70505L19.0061 3.70505Z" fill="#0F172A"/>
<path fill-rule="evenodd" clip-rule="evenodd" d="M3.01896 11.1147L18 5.66708V9.08858L22.0061 10.5454C22.3954 10.6869 22.5962 11.1172 22.4547 11.5065C22.3131 11.8958 21.8828 12.0966 21.4935 11.955L20.9998 11.7755V20.2502H21.75C22.1642 20.2502 22.5 20.586 22.5 21.0002C22.5 21.4144 22.1642 21.7502 21.75 21.7502H2.25C1.83579 21.7502 1.5 21.4144 1.5 21.0002C1.5 20.586 1.83579 20.2502 2.25 20.2502H3V11.1215L3.01896 11.1147ZM18 20.2502V10.6847L19.4998 11.2301V20.2502H18ZM9 14.2502C8.58579 14.2502 8.25 14.586 8.25 15.0002V19.5002C8.25 19.9144 8.58579 20.2502 9 20.2502H12C12.4142 20.2502 12.75 19.9144 12.75 19.5002V15.0002C12.75 14.586 12.4142 14.2502 12 14.2502H9Z" fill="#0F172A"/>
</svg>

<svg xmlns="http://www.w3.org/2000/svg" viewBox="0 0 24 24" fill="currentColor" aria-hidden="true">
  <path d="M19.006 3.705a.75.75 0 00-.512-1.41L6 6.838V3a.75.75 0 00-.75-.75h-1.5A.75.75 0 003 3v4.93l-1.006.365a.75.75 0 00.512 1.41l16.5-6z"/>
  <path fill-rule="evenodd" d="M3.019 11.115L18 5.667V9.09l4.006 1.456a.75.75 0 11-.512 1.41l-.494-.18v8.475h.75a.75.75 0 010 1.5H2.25a.75.75 0 010-1.5H3v-9.129l.019-.006zM18 20.25v-9.565l1.5.545v9.02H18zm-9-6a.75.75 0 00-.75.75v4.5c0 .414.336.75.75.75h3a.75.75 0 00.75-.75V15a.75.75 0 00-.75-.75H9z" clip-rule="evenodd"/>
</svg>
